packages/hms_room_kit/lib/src/assets/icons/empty_chat.svg

<svg width="185" height="132" viewBox="0 0 185 132" fill="none" xmlns="http://www.w3.org/2000/svg">
<path fill-rule="evenodd" clip-rule="evenodd" d="M145.385 90.8996C145.818 90.5228 146.361 90.2945 146.933 90.2481L146.946 90.2471L169.855 88.6612C170.202 88.6374 170.549 88.71 170.857 88.871C171.162 89.0303 171.418 89.27 171.596 89.564C171.598 89.567 171.6 89.5701 171.601 89.5732L171.603 89.5764C171.781 89.8742 171.873 90.2152 171.869 90.5618C171.865 90.9096 171.765 91.2494 171.58 91.5439L159.35 111.003C159.039 111.486 158.581 111.856 158.044 112.06C157.507 112.264 156.919 112.29 156.366 112.136C155.813 111.982 155.323 111.655 154.969 111.202C154.615 110.75 154.415 110.197 154.398 109.623C154.398 109.608 154.398 109.594 154.398 109.58L154.496 99.8071L145.846 95.2856C145.834 95.2789 145.821 95.2719 145.808 95.2647C145.31 94.9783 144.917 94.5402 144.686 94.0144C144.455 93.4886 144.398 92.9027 144.524 92.3423C144.65 91.7819 144.951 91.2763 145.385 90.8996ZM167.941 90.5086L147.103 92.395C146.99 92.4052 146.883 92.4506 146.797 92.5249C146.711 92.6003 146.65 92.7014 146.625 92.8135C146.6 92.9256 146.612 93.0427 146.658 93.1479C146.702 93.2482 146.775 93.3325 146.868 93.3898L155.76 97.7958L167.941 90.5086ZM156.82 99.6713L169.047 92.3563L157.538 109.839C157.476 109.934 157.386 110.006 157.28 110.046C157.173 110.087 157.055 110.093 156.944 110.062C156.834 110.031 156.736 109.965 156.665 109.875C156.597 109.789 156.558 109.684 156.551 109.575L156.82 99.6713Z" fill="#444954"/>
<path d="M83.8249 34.9157C72.2182 46.6018 51.7098 75.0176 62.5292 95.1919C76.0536 120.41 140.953 78.7984 115.864 67.1658C90.7756 55.5332 66.3818 121.518 102.068 119.891C116.898 118.12 131.721 114.199 146.203 105.012" stroke="#293042" stroke-width="2.24384" stroke-dasharray="5.98 5.98"/>
<rect x="0.502563" width="173.524" height="58.3398" rx="29.1699" fill="#272A31"/>
<g opacity="0.4">
<rect x="25.1848" y="20.3752" width="110.696" height="4.48768" rx="2.24384" fill="#444954"/>
</g>
<g opacity="0.4">
<rect x="38.6478" y="33.8383" width="109.948" height="4.48768" rx="2.24384" fill="#444954"/>
</g>
<path d="M40.8916 71.0549L28.9245 54.6001L52.8588 54.6001L40.8916 71.0549Z" fill="#272A31"/>
</svg>

<svg xmlns="http://www.w3.org/2000/svg" width="185" height="132" fill="none" viewBox="0 0 185 132"><path fill="#444954" fill-rule="evenodd" d="M145.385 90.9a2.69 2.69 0 0 1 1.548-.652h.013l22.909-1.587a1.885 1.885 0 0 1 1.746.912l.002.003a1.878 1.878 0 0 1-.023 1.968l-12.23 19.459a2.688 2.688 0 0 1-2.984 1.133 2.688 2.688 0 0 1-1.968-2.513v-.043l.098-9.773-8.65-4.521-.038-.021a2.69 2.69 0 0 1-.423-4.365Zm22.556-.391-20.838 1.886a.543.543 0 0 0-.478.419.541.541 0 0 0 .243.576l8.892 4.406 12.181-7.287ZM156.82 99.67l12.227-7.315-11.509 17.483a.537.537 0 0 1-.987-.264l.269-9.904Z" clip-rule="evenodd"/><path stroke="#293042" stroke-dasharray="5.98 5.98" stroke-width="2.244" d="M83.825 34.916C72.218 46.602 51.71 75.018 62.529 95.192c13.525 25.218 78.424-16.394 53.335-28.026-25.088-11.633-49.482 54.352-13.796 52.725 14.83-1.771 29.653-5.692 44.135-14.879"/><rect width="173.524" height="58.34" x=".503" fill="#272A31" rx="29.17"/><rect width="110.696" height="4.488" x="25.185" y="20.375" fill="#444954" opacity=".4" rx="2.244"/><rect width="109.948" height="4.488" x="38.648" y="33.838" fill="#444954" opacity=".4" rx="2.244"/><path fill="#272A31" d="M40.892 71.055 28.924 54.6H52.86L40.892 71.055Z"/></svg>
